X:8
T:May day carol - cayzer
C:Sent by T. S. Cayzer, as heard by him on Dartmoor in 1850
%%VWML:SBG-1-1-236-0
F:http://www.vwml.org/record/SBG/1/1/236
Z:Original Sibleius Transcription by Martin and Shan Graebe
M:4/4
L:1/8
K:G
GA | Bc BA AG FE | A2 BG2< F2A | GE FG A2 d^c | B4> e4 |
d^c BA G2 E2 |FG AF d2 e2 | d^c BA GE FG | E6 ||
T:May day carol - sent by broadwood
T:“The Moon shines bright” a X’mas Carol taken down in Sussex, 1830, 
T:sent me by L.E. Broadwood, Lyne, Horsham.
M:4/4
L:1/8
K:Em
B,2 | E4 E2 F2 | G4 F2 G2 | A4 B2 G2 | F4 B,2 B,2 | E2>^D2 E2 F2 |G4 A4 | B4> e4 |
 d2 "(#)"c2 B2 A2 | G4 B4 |E2>^D2 E2 F2 | G4 A2 B2 | c4 B2 A2 | B2 G2 F4 |E6 ||


